assets/images/icons/eye.svg

<svg fill="none" height="24" viewBox="0 0 24 24" width="24" xmlns="http://www.w3.org/2000/svg">
    <path clip-rule="evenodd" d="M12 13.5C11.173 13.5 10.5 12.827 10.5 12C10.5 11.173 11.173 10.5 12 10.5C12.827 10.5 13.5 11.173 13.5 12C13.5 12.827 12.827 13.5 12 13.5M12 8.50002C10.07 8.50002 8.50005 10.07 8.50005 12C8.50005 13.93 10.07 15.5 12 15.5C13.93 15.5 15.5 13.93 15.5 12C15.5 10.07 13.93 8.50002 12 8.50002M12.2197 16.9976C7.91375 17.0976 5.10475 13.4146 4.17275 11.9956C5.19875 10.3906 7.78275 7.10462 11.7807 7.00262C16.0697 6.89362 18.8947 10.5856 19.8267 12.0046C18.8017 13.6096 16.2167 16.8956 12.2197 16.9976M21.8678 11.5026C21.2298 10.3906 17.7057 4.81662 11.7297 5.00362C6.20175 5.14362 2.98675 10.0136 2.13275 11.5026C1.95575 11.8106 1.95575 12.1896 2.13275 12.4976C2.76175 13.5946 6.16175 18.9996 12.0247 18.9996C12.1067 18.9996 12.1888 18.9986 12.2708 18.9966C17.7977 18.8556 21.0138 13.9866 21.8678 12.4976C22.0438 12.1896 22.0438 11.8106 21.8678 11.5026"
        fill="#FFFFFF"
        fill-rule="evenodd" />
</svg>

<svg fill="none" height="24" width="24" xmlns="http://www.w3.org/2000/svg">
    <path clip-rule="evenodd"
        d="M12 13.5c-.827 0-1.5-.673-1.5-1.5s.673-1.5 1.5-1.5 1.5.673 1.5 1.5-.673 1.5-1.5 1.5m0-5c-1.93 0-3.5 1.57-3.5 3.5s1.57 3.5 3.5 3.5 3.5-1.57 3.5-3.5-1.57-3.5-3.5-3.5m.22 8.498c-4.306.1-7.115-3.583-8.047-5.002 1.026-1.605 3.61-4.891 7.608-4.993 4.289-.11 7.114 3.583 8.046 5.002-1.025 1.605-3.61 4.89-7.607 4.993m9.648-5.495c-.638-1.112-4.162-6.686-10.138-6.5-5.528.14-8.743 5.01-9.597 6.5a.999.999 0 0 0 0 .995C2.762 13.595 6.162 19 12.025 19l.246-.003c5.527-.141 8.743-5.01 9.597-6.5a1.004 1.004 0 0 0 0-.994"
        fill="#FFF" fill-rule="evenodd" />
</svg>
